package/converter/svg/solid/computer-mouse.svg

<svg xmlns="http://www.w3.org/2000/svg" viewBox="0 0 384 512"><!-- Font Awesome Pro 6.0.0-alpha2 by @fontawesome - https://fontawesome.com License - https://fontawesome.com/license (Commercial License) --><path d="M0 352C0 440.375 71.625 512 160 512H224C312.375 512 384 440.375 384 352V224H0V352ZM176 0H160C71.625 0 0 71.625 0 160V192H176V0ZM224 0H208V192H384V160C384 71.625 312.375 0 224 0Z"/></svg>

<svg xmlns="http://www.w3.org/2000/svg" viewBox="0 0 384 512"><!--! Font Awesome Pro 6.6.0 by @fontawesome - https://fontawesome.com License - https://fontawesome.com/license (Commercial License) Copyright 2024 Fonticons, Inc. --><path d="M0 192l176 0L176 0 160 0C71.6 0 0 71.6 0 160l0 32zm0 32L0 352c0 88.4 71.6 160 160 160l64 0c88.4 0 160-71.6 160-160l0-128-192 0L0 224zm384-32l0-32C384 71.6 312.4 0 224 0L208 0l0 192 176 0z"/></svg>
